svg/building/pisa_tower_fill.svg

<?xml version="1.0" encoding="UTF-8"?>
<svg width="24px" height="24px" viewBox="0 0 24 24" version="1.1" xmlns="http://www.w3.org/2000/svg" xmlns:xlink="http://www.w3.org/1999/xlink">
    <title>pisa_tower_fill</title>
    <g id="页面-1" stroke="none" stroke-width="1" fill="none" fill-rule="evenodd">
        <g id="Building" transform="translate(-192.000000, -240.000000)">
            <g id="pisa_tower_fill" transform="translate(192.000000, 240.000000)">
                 <path d="M24,0 L24,24 L0,24 L0,0 L24,0 Z M12.5934901,23.257841 L12.5819402,23.2595131 L12.5108777,23.2950439 L12.4918791,23.2987469 L12.4918791,23.2987469 L12.4767152,23.2950439 L12.4056548,23.2595131 C12.3958229,23.2563662 12.3870493,23.2590235 12.3821421,23.2649074 L12.3780323,23.275831 L12.360941,23.7031097 L12.3658947,23.7234994 L12.3769048,23.7357139 L12.4804777,23.8096931 L12.4953491,23.8136134 L12.4953491,23.8136134 L12.5071152,23.8096931 L12.6106902,23.7357139 L12.6232938,23.7196733 L12.6232938,23.7196733 L12.6266527,23.7031097 L12.609561,23.275831 C12.6075724,23.2657013 12.6010112,23.2592993 12.5934901,23.257841 L12.5934901,23.257841 Z M12.8583906,23.1452862 L12.8445485,23.1473072 L12.6598443,23.2396597 L12.6498822,23.2499052 L12.6498822,23.2499052 L12.6471943,23.2611114 L12.6650943,23.6906389 L12.6699349,23.7034178 L12.6699349,23.7034178 L12.678386,23.7104931 L12.8793402,23.8032389 C12.8914285,23.8068999 12.9022333,23.8029875 12.9078286,23.7952264 L12.9118235,23.7811639 L12.8776777,23.1665331 C12.8752882,23.1545897 12.8674102,23.1470016 12.8583906,23.1452862 L12.8583906,23.1452862 Z M12.1430473,23.1473072 C12.1332178,23.1423925 12.1221763,23.1452606 12.1156365,23.1525954 L12.1099173,23.1665331 L12.0757714,23.7811639 C12.0751323,23.7926639 12.0828099,23.8018602 12.0926481,23.8045676 L12.108256,23.8032389 L12.3092106,23.7104931 L12.3186497,23.7024347 L12.3186497,23.7024347 L12.3225043,23.6906389 L12.340401,23.2611114 L12.337245,23.2485176 L12.337245,23.2485176 L12.3277531,23.2396597 L12.1430473,23.1473072 Z" id="MingCute" fill-rule="nonzero"></path>
                <path d="M11.9898,1.82418 L15.9291,2.51877 C17.0168,2.71058 17.7432,3.74789 17.5514,4.83568 L17.3777,5.82049 C17.9216,5.91639 18.2848,6.43505 18.1889,6.97894 L17.4943,10.9182 C18.0382,11.0141 18.4014,11.5327 18.3055,12.0766 C18.2096,12.6205 17.6909,12.9837 17.147,12.8878 L16.6261,15.8422 C17.1699,15.9381 17.5331,16.4568 17.4372,17.0007 C17.3413,17.5446 16.8217,17.9076 16.2778,17.8117 L15.5041,22.1746 C15.4194,22.6521 15.0044,23 14.5195,23 L6.39599462,23 C6.10027,23 5.81971,22.8691 5.62971,22.6425 C5.43971,22.4158 5.35975,22.1168 5.41133,21.8256 L6.42991,16.0752 C5.88644,15.979 5.52366,15.4605 5.61952,14.9169 C5.71542,14.373 6.23408,14.0098 6.77798,14.1057 L7.29892,11.1513 C6.75503,11.0554 6.39186,10.5367 6.48776,9.99285 C6.58367,9.44896 7.10232,9.08579 7.64622,9.18169 L8.34081,5.24246 C8.38687,4.98127 8.53479,4.74908 8.75204,4.59696 C8.96929,4.44484 9.23808,4.38525 9.49927,4.4313 L9.67291,3.4465 C9.86472,2.35871 10.902,1.63237 11.9898,1.82418 Z M9.96154,18.7231 L9.56006,21 L11.5909,21 L11.9312,19.0704 C12.0271,18.5265 11.6639,18.0078 11.12,17.9119 C10.5761,17.816 10.0574,18.1792 9.96154,18.7231 Z M12.0493,13.0043 C11.54425,12.91525 11.0610148,13.2220566 10.9177751,13.7018173 L10.8909,13.8155 L10.7172,14.8003 L12.6868,15.1476 L12.8605,14.1628 C12.9564,13.6189 12.5932,13.1002 12.0493,13.0043 Z M12.9175,8.08037 C12.41245,7.99131071 11.9292148,8.29809082 11.7859751,8.77784772 L11.7591,8.89153 L11.5854,9.87628 L13.5551,10.2236 L13.7287,9.23882 C13.8246,8.69493 13.4614,8.17627 12.9175,8.08037 Z M11.6425,3.79379 L11.4689,4.7786 L15.4081,5.47319 L15.5818,4.48838 L11.6425,3.79379 Z" id="形状" fill="#09244B"></path>
            </g>
        </g>
    </g>
</svg>

<svg xmlns="http://www.w3.org/2000/svg" width="24" height="24"><g fill="none" fill-rule="evenodd"><path d="M24 0v24H0V0h24ZM12.593 23.258l-.011.002-.071.035-.02.004-.014-.004-.071-.035c-.01-.004-.019-.001-.024.005l-.004.01-.017.428.005.02.01.013.104.074.015.004.012-.004.104-.074.012-.016.004-.017-.017-.427c-.002-.01-.009-.017-.017-.018Zm.265-.113-.013.002-.185.093-.01.01-.003.011.018.43.005.012.008.007.201.093c.012.004.023 0 .029-.008l.004-.014-.034-.614c-.003-.012-.01-.02-.02-.022Zm-.715.002a.023.023 0 0 0-.027.006l-.006.014-.034.614c0 .012.007.02.017.024l.015-.002.201-.093.01-.008.004-.011.017-.43-.003-.012-.01-.01-.184-.092Z"/><path fill="#09244B" d="m11.99 1.824 3.94.695a2 2 0 0 1 1.621 2.317l-.173.984a1 1 0 0 1 .81 1.159l-.694 3.94a1 1 0 1 1-.347 1.969l-.52 2.954a1 1 0 1 1-.35 1.97l-.773 4.363a1 1 0 0 1-.984.825H6.396a1 1 0 0 1-.985-1.174l1.019-5.75a1 1 0 0 1 .348-1.97l.52-2.955a1 1 0 0 1 .348-1.97l.695-3.939a1 1 0 0 1 1.158-.81l.174-.986a2 2 0 0 1 2.317-1.622Zm-2.028 16.9L9.56 21h2.03l.341-1.93a1 1 0 0 0-1.97-.347Zm2.087-5.72a1 1 0 0 0-1.131.698l-.027.114-.174.984 1.97.348.174-.985a1 1 0 0 0-.812-1.159Zm.869-4.924a1 1 0 0 0-1.132.698l-.027.114-.174.984 1.97.348.174-.985a1 1 0 0 0-.811-1.159Zm-1.275-4.286-.174.985 3.94.694.173-.985-3.94-.694Z"/></g></svg>
